X:73
T:B073-  Come, boys, fill us a bunper
Q:1/4=120
L:1/4
M:9/4
K:G
g2dedcBAG|g2fea2f3|g2dedcBAG|g2fea2f3||\
a2defgBBB|e2d(cB2)A3|B2cde/2f/2gfdg|\
e3/2f/2gaf3/2(e/4f/4)g3|]

